X:869
T:Polkett
T:"Bullfest" efter Pelle Fors
R:Polka
Z:Björn Ek 2008-12-31
O:Vikbolandet, Östergötland
S:efter Pelle Fors
B:Låtar efter Pelle Fors
D:[[!Klintetten]] - Dansbart
M:2/4
L:1/8
K:G
%
|:dg dg|!trill!fe e>e  |fg a>a  |(a/g/)f/e/ dd/d/|
dg dg  |!trill!fe ee/e/|ed/d/ dF|AG G2          :|
%
|:{/B}dd !trill!dc|!trill!cB BA |GB d>B|(c/d/)c/B/ A>B|
cc !trill!cB      |!trill!BA A>G|FA d>F|AG G2        :|
%
(:musicend:)

(:music:)
